!!!OTL: 笑ってたいんだ 修正版
**kern	**kern	**text	**kern	**text	**kern	**text	**kern	**text
*part5	*part4	*part4	*part3	*part3	*part2	*part2	*part1	*part1
*staff5	*staff4	*staff4	*staff3	*staff3	*staff2	*staff2	*staff1	*staff1
*I"Bass	*I"Chor3	*	*I"Chor2	*	*I"Chor1	*	*I"Lead	*
*I'B	*I'C3	*	*I'C2	*	*I'C1	*	*I'L	*
*clefF4	*clefGv2	*	*clefGv2	*	*clefG2	*	*clefG2	*
*k[b-]	*k[b-]	*	*k[b-]	*	*k[b-]	*	*k[b-]	*
*M4/4	*M4/4	*	*M4/4	*	*M4/4	*	*M4/4	*
*MM158	*MM158	*	*MM158	*	*MM158	*	*MM158	*
=1	=1	=1	=1	=1	=1	=1	=1	=1
1FF	1c	lu	2f	.	2a	lu	1r	.
.	.	.	8fL	.	8aL	tu	.	.
.	.	.	8gJ	.	8b-J	lu	.	.
.	.	.	4a	.	4cc	lu	.	.
=2	=2	=2	=2	=2	=2	=2	=2	=2
1ryy	2c	lu	1f	.	1a	lu	1r	.
.	8r	.	.	.	.	.	.	.
.	8c	tu	.	.	.	.	.	.
.	8r	.	.	.	.	.	.	.
.	8c	tu	.	.	.	.	.	.
=3	=3	=3	=3	=3	=3	=3	=3	=3
1AA	1d-X	lu	2e	.	2a	lu	1r	.
.	.	.	8eL	.	8aL	tu	.	.
.	.	.	8fJ	.	8b-J	lu	.	.
.	.	.	4g	.	4cc	lu	.	.
=4	=4	=4	=4	=4	=4	=4	=4	=4
1ryy	2d-X	lu	2e	.	2a	lu	1r	.
.	2d-	lu	8eL	.	8aL	tu	.	.
.	.	.	8fJ	.	8b-J	lu	.	.
.	.	.	4g	.	4cc	lu	.	.
=5	=5	=5	=5	=5	=5	=5	=5	=5
8DL	2f	.	2a	.	2cc	lu	1r	.
8D	.	.	.	.	.	.	.	.
8D	.	.	.	.	.	.	.	.
8DJ	.	.	.	.	.	.	.	.
8DL	8AL	.	8eL	.	8aL	tu	.	.
8D	8B-J	.	8fJ	.	8b-J	lu	.	.
8D	4c	.	4g	.	4cc	lu	.	.
8DJ	.	.	.	.	.	.	.	.
=6	=6	=6	=6	=6	=6	=6	=6	=6
8CL	2f	.	2a	.	2cc	lu	1r	.
8C	.	.	.	.	.	.	.	.
8C	.	.	.	.	.	.	.	.
8CJ	.	.	.	.	.	.	.	.
8CL	8AL	.	8eL	.	8aL	tu	.	.
8C	8B-J	.	8fJ	.	8b-J	lu	.	.
8C	4c	.	4g	.	4cc	lu	.	.
8CJ	.	.	.	.	.	.	.	.
=7	=7	=7	=7	=7	=7	=7	=7	=7
8BB-L	4r	.	4r	.	4r	.	1r	.
8BB-	.	.	.	.	.	.	.	.
8BB-	2f	.	2b-	.	2dd	lu	.	.
8BB-J	.	.	.	.	.	.	.	.
8BB-L	.	.	.	.	.	.	.	.
8BB-	.	.	.	.	.	.	.	.
8BB-	8fL	.	8aL	.	8ccL	tu	.	.
8BB-J	8gJ	.	8b-J	.	8ddJ	lu	.	.
=8	=8	=8	=8	=8	=8	=8	=8	=8
8r	8r	.	8r	.	8r	.	1r	.
8C	8f	.	8a	.	8cc	tu	.	.
8r	8r	.	8r	.	8r	.	.	.
8C	8e	.	8g	.	8b-	tu	.	.
8r	8r	.	8r	.	8r	.	.	.
8C	8d	.	8f	.	8a	tu	.	.
8r	8r	.	8r	.	8r	.	.	.
8C	8c	.	8e	.	8g	tu	.	.
=9!|:	=9!|:	=9!|:	=9!|:	=9!|:	=9!|:	=9!|:	=9!|:	=9!|:
1FF	[1c	.	[1f	.	[1a	lu	8fL	.
.	.	.	.	.	.	.	8f	.
.	.	.	.	.	.	.	8f	.
.	.	.	.	.	.	.	8fJ	.
.	.	.	.	.	.	.	8fL	.
.	.	.	.	.	.	.	8f	.
.	.	.	.	.	.	.	8f	.
.	.	.	.	.	.	.	8fJ	.
=10	=10	=10	=10	=10	=10	=10	=10	=10
1ryy	2c]	.	2f]	.	2a]	.	8fL	.
.	.	.	.	.	.	.	8g	.
.	.	.	.	.	.	.	8a	.
.	.	.	.	.	.	.	8aJ	.
.	8r	.	8r	.	8r	.	2r	.
.	8c	.	8f	.	8a	tu	.	.
.	8r	.	8r	.	8r	.	.	.
.	8c	.	8f	.	8a	tu	.	.
=11	=11	=11	=11	=11	=11	=11	=11	=11
1AA	[1d-X	.	[1e	.	[1a	lu	8eL	.
.	.	.	.	.	.	.	8e	.
.	.	.	.	.	.	.	8e	.
.	.	.	.	.	.	.	8eJ	.
.	.	.	.	.	.	.	8eL	.
.	.	.	.	.	.	.	8e	.
.	.	.	.	.	.	.	8e	.
.	.	.	.	.	.	.	8eJ	.
=12	=12	=12	=12	=12	=12	=12	=12	=12
1ryy	2d-]	.	2e]	.	2a]	.	8eL	.
.	.	.	.	.	.	.	8f	.
.	.	.	.	.	.	.	8g	.
.	.	.	.	.	.	.	8gJ	.
.	8r	.	8r	.	8r	.	2r	.
.	8d-X	.	8e	.	8a	tu	.	.
.	4d-	.	4e	.	4a	lu	.	.
=13	=13	=13	=13	=13	=13	=13	=13	=13
1D	[1d	.	[1f	.	[1a	lu	8dL	.
.	.	.	.	.	.	.	8d	.
.	.	.	.	.	.	.	8d	.
.	.	.	.	.	.	.	8dJ	.
.	.	.	.	.	.	.	8dL	.
.	.	.	.	.	.	.	8d	.
.	.	.	.	.	.	.	8d	.
.	.	.	.	.	.	.	8dJ	.
=14	=14	=14	=14	=14	=14	=14	=14	=14
1ryy	2d]	.	2f]	.	2a]	.	8dL	.
.	.	.	.	.	.	.	8e	.
.	.	.	.	.	.	.	8f	.
.	.	.	.	.	.	.	8fJ	.
.	8r	.	8r	.	8r	.	8r	.
.	8dL	.	8fL	.	8aL	tu	8dL	.
.	8d	.	8f	.	8a	lu	8d	.
.	8dJ	.	8fJ	.	8aJ	lu	8dJ	.
=15	=15	=15	=15	=15	=15	=15	=15	=15
1C	1e-X	.	1b-	.	1cc	lu	4cc	.
.	.	.	.	.	.	.	8r	.
.	.	.	.	.	.	.	8b-	.
.	.	.	.	.	.	.	4a	.
.	.	.	.	.	.	.	8r	.
.	.	.	.	.	.	.	8b-	.
=16	=16	=16	=16	=16	=16	=16	=16	=16
2F	2e-X	.	2a	.	2cc	lu	4.a	.
.	.	.	.	.	.	.	8g	.
8FL	8r	.	8r	.	8r	.	4f	.
8FF	8e-	.	8a	.	8cc	tu	.	.
8GG	4e-	.	4a	.	4cc	lu	4r	.
8AAJ	.	.	.	.	.	.	.	.
=17	=17	=17	=17	=17	=17	=17	=17	=17
8BB-L	8fL	.	8b-L	.	8ddL	.	8b-L	.
8BB-	8f	.	8b-	.	8dd	.	8b-	.
8BB-	8f	.	8b-	.	8dd	.	8b-	.
8BB-J	8fJ	.	8b-J	.	8ddJ	.	8b-J	.
8BB-L	8fL	.	8b-L	.	8ddL	.	8b-L	.
8BB-	8e	.	8a	.	8cc	.	8a	.
8BB-	8f	.	8b-	.	8dd	.	8b-	.
8BB-J	8eJ	.	8aJ	.	8ccJ	.	8aJ	.
=18	=18	=18	=18	=18	=18	=18	=18	=18
8CL	8fL	.	8b-L	.	8ddL	.	8b-L	.
8C	8e	.	8a	.	8cc	.	8aJ	.
8C	8fJ	.	8b-J	.	8ddJ	.	4b-	.
8CJ	4.f	.	4.b-	.	4.dd	.	.	.
8CL	.	.	.	.	.	.	2r	.
8C	.	.	.	.	.	.	.	.
8C	4d	.	4g	.	4b-	lu	.	.
8CJ	.	.	.	.	.	.	.	.
=19	=19	=19	=19	=19	=19	=19	=19	=19
8AAL	8eL	.	8aL	.	8ccL	.	8aL	.
8AA	8e	.	8a	.	8cc	.	8a	.
8AA	8e	.	8a	.	8cc	.	8a	.
8AAJ	8eJ	.	8aJ	.	8ccJ	.	8aJ	.
8AAL	8eL	.	8aL	.	8ccL	.	8aL	.
8AA	8d	.	8g	.	8b-	.	8g	.
8AA	8e	.	8a	.	8cc	.	8a	.
8AAJ	8dJ	.	8gJ	.	8b-J	.	8gJ	.
=20	=20	=20	=20	=20	=20	=20	=20	=20
8DL	8eL	.	8aL	.	8ccL	.	8aL	.
8D	8dJ	.	8gJ	.	8b-J	.	8gJ	.
8D	2.e	.	2.a	.	2.cc	.	4a	.
8DJ	.	.	.	.	.	.	.	.
8DL	.	.	.	.	.	.	8r	.
8D	.	.	.	.	.	.	8fL	.
8D	.	.	.	.	.	.	8f	.
8DJ	.	.	.	.	.	.	8fJ	.
=21	=21	=21	=21	=21	=21	=21	=21	=21
8GGL	1d	.	1g	.	1b-	lu	4.g	.
8GG	.	.	.	.	.	.	.	.
8GG	.	.	.	.	.	.	.	.
8GGJ	.	.	.	.	.	.	8f	.
8GGL	.	.	.	.	.	.	4g	.
8GG	.	.	.	.	.	.	.	.
8GG	.	.	.	.	.	.	8gL	.
8GGJ	.	.	.	.	.	.	8aJ	.
=22	=22	=22	=22	=22	=22	=22	=22	=22
1ryy	2d	.	2g	.	2b-	lu	8b-L	.
.	.	.	.	.	.	.	8aJ	.
.	.	.	.	.	.	.	4g	.
.	8r	.	8r	.	8r	.	8r	.
.	8dL	.	8gL	.	8b-L	tu	8fL	.
.	8d	.	8g	.	8b-	lu	8f	.
.	8dJ	.	8gJ	.	8b-J	lu	8fJ	.
=23	=23	=23	=23	=23	=23	=23	=23	=23
8D-XL	1d-X	.	1f	.	1b-	lu	4.g	.
8D-	.	.	.	.	.	.	.	.
8D-	.	.	.	.	.	.	.	.
8D-J	.	.	.	.	.	.	8f	.
8D-L	.	.	.	.	.	.	4.g	.
8D-	.	.	.	.	.	.	.	.
8D-	.	.	.	.	.	.	.	.
8D-J	.	.	.	.	.	.	8a	.
=24	=24	=24	=24	=24	=24	=24	=24	=24
8D-XL	2d-X	.	2f	.	2b-	lu	8b-L	.
8D-	.	.	.	.	.	.	8aJ	.
8D-	.	.	.	.	.	.	4g	.
8D-J	.	.	.	.	.	.	.	.
8CL	8r	.	8r	.	8r	.	2r	.
8EE	8d-	.	8f	.	8b-	tu	.	.
8FF	4e	.	4g	.	4cc	lu	.	.
8GGJ	.	.	.	.	.	.	.	.
=25:|!	=25:|!	=25:|!	=25:|!	=25:|!	=25:|!	=25:|!	=25:|!	=25:|!
8D-XL	2d-X	.	2f	.	2b-	lu	8b-L	.
8D-	.	.	.	.	.	.	8aJ	.
8EE	.	.	.	.	.	.	4g	.
8EEJ	.	.	.	.	.	.	.	.
8r	8r	.	8rG	.	8r	.	8r	.
8EEL	8d-L	.	8fL	.	8b-L	.	8fL	.
8EE	8d-	.	8f	.	8b-	.	8f	.
[8AAJ	[8eJ	.	[8aJ	.	[8ccJ	.	[8ccJ	.
=26	=26	=26	=26	=26	=26	=26	=26	=26
8AAL]	2.e]	.	2.a]	.	2.cc]	.	2.cc]	.
8AA	.	.	.	.	.	.	.	.
8AA	.	.	.	.	.	.	.	.
8AAJ	.	.	.	.	.	.	.	.
8AAL	.	.	.	.	.	.	.	.
8AAJ	.	.	.	.	.	.	.	.
8r	8cL	.	8eL	.	8gL	.	8eL	.
[8D	[8cJ	.	[8fJ	.	8aJ	.	[8fJ	.
=27	=27	=27	=27	=27	=27	=27	=27	=27
8DL]	2c]	.	2f]	.	2a	.	2f]	.
8D	.	.	.	.	.	.	.	.
8D	.	.	.	.	.	.	.	.
8DJ	.	.	.	.	.	.	.	.
8DL	8r	.	8r	.	8r	.	8r	.
8DJ	8c	.	8f	.	8a	tu	8fL	.
8r	8r	.	8r	.	8r	.	8e	.
[8GG	8c	.	8f	.	8a	tu	8fJ	.
=28	=28	=28	=28	=28	=28	=28	=28	=28
8GGL]	2.d	.	2.g	.	2.b-	lu	4d	.
8GG	.	.	.	.	.	.	.	.
[8GG	.	.	.	.	.	.	4b-	.
8GGJ]	.	.	.	.	.	.	.	.
8GGL	.	.	.	.	.	.	8aL	.
8GGJ	.	.	.	.	.	.	[8b-	.
8r	8r	.	8r	.	8r	.	8b-]	.
8C	[8c	.	[8f	.	[8a	.	[8aJ	.
=29	=29	=29	=29	=29	=29	=29	=29	=29
8r	8c]	.	8f]	.	8a]	.	8a]	.
8F	4c	.	4e	.	4g	.	4g	.
8r	.	.	.	.	.	.	.	.
8E	4c	.	4f	.	4a	.	4a	.
8r	.	.	.	.	.	.	.	.
8D	4d	.	4g	.	4b-	.	4b-	.
8r	.	.	.	.	.	.	.	.
[8AA	[8e	.	[8a	.	[8cc	.	[8cc	.
=30	=30	=30	=30	=30	=30	=30	=30	=30
8AAL]	2.e]	.	2.a]	.	2.cc]	.	2.cc]	.
8AA	.	.	.	.	.	.	.	.
8AA	.	.	.	.	.	.	.	.
8AAJ	.	.	.	.	.	.	.	.
8AAL	.	.	.	.	.	.	.	.
8AAJ	.	.	.	.	.	.	.	.
8r	8cL	.	8eL	.	8gL	.	8eL	.
[8D	[8cJ	.	[8fJ	.	[8aJ	.	[8fJ	.
=31	=31	=31	=31	=31	=31	=31	=31	=31
8DL]	1c]	.	1f]	.	1a]	.	2f]	.
8D	.	.	.	.	.	.	.	.
[8D	.	.	.	.	.	.	.	.
8DJ]	.	.	.	.	.	.	.	.
8DL	.	.	.	.	.	.	8.fL	.
8DJ	.	.	.	.	.	.	.	.
.	.	.	.	.	.	.	8.g	.
8r	.	.	.	.	.	.	.	.
[8GG	.	.	.	.	.	.	8aJ	.
=32	=32	=32	=32	=32	=32	=32	=32	=32
8GG]	1d	.	1f	.	1b-	lu	1d	.
8r	.	.	.	.	.	.	.	.
8GG	.	.	.	.	.	.	.	.
8r	.	.	.	.	.	.	.	.
8GG	.	.	.	.	.	.	.	.
8r	.	.	.	.	.	.	.	.
8GG	.	.	.	.	.	.	.	.
8r	.	.	.	.	.	.	.	.
=33	=33	=33	=33	=33	=33	=33	=33	=33
8GGL	1d	.	1f	.	1b-	lu	2r	.
8GG	.	.	.	.	.	.	.	.
8GGJ	.	.	.	.	.	.	.	.
4r	.	.	.	.	.	.	.	.
.	.	.	.	.	.	.	8.fL	.
8GGL	.	.	.	.	.	.	.	.
.	.	.	.	.	.	.	8.g	.
8GGJ	.	.	.	.	.	.	.	.
8r	.	.	.	.	.	.	8aJ	.
=34	=34	=34	=34	=34	=34	=34	=34	=34
8BB-	1d-X	.	1f	.	1b-	lu	1d-X	.
8r	.	.	.	.	.	.	.	.
8BB-	.	.	.	.	.	.	.	.
8r	.	.	.	.	.	.	.	.
8BB-	.	.	.	.	.	.	.	.
8r	.	.	.	.	.	.	.	.
8BB-	.	.	.	.	.	.	.	.
8r	.	.	.	.	.	.	.	.
=35	=35	=35	=35	=35	=35	=35	=35	=35
8BB-L	1d-X	.	1f	.	1b-	lu	4r	.
8BB-	.	.	.	.	.	.	.	.
8BB-J	.	.	.	.	.	.	8r	.
4r	.	.	.	.	.	.	8f	.
.	.	.	.	.	.	.	8fL	.
8BB-L	.	.	.	.	.	.	8e	.
8BB-J	.	.	.	.	.	.	8e	.
8r	.	.	.	.	.	.	[8gJ	.
=36	=36	=36	=36	=36	=36	=36	=36	=36
4.C	8B-	.	8e	.	8g	tu	1g]	.
.	8r	.	8r	.	8r	.	.	.
.	8B-	.	8e	.	8g	tu	.	.
4.F	8r	.	8r	.	8r	.	.	.
.	8B-	.	8e	.	8g	tu	.	.
.	8r	.	8r	.	8r	.	.	.
4E	8B-	.	8e	.	8g	tu	.	.
.	8r	.	8r	.	8r	.	.	.
=37	=37	=37	=37	=37	=37	=37	=37	=37
8r	8B-L	.	8eL	.	8gL	tu	1r	.
4.G	8B-	.	8e	.	8g	lu	.	.
.	8B-J	.	8eJ	.	8gJ	lu	.	.
.	4r	.	4r	.	4r	.	.	.
4F	.	.	.	.	.	.	.	.
.	8B-L	.	8eL	.	8gL	tu	.	.
4D	8B-J	.	8eJ	.	8gJ	lu	.	.
.	8r	.	8r	.	8r	.	.	.
=38	=38	=38	=38	=38	=38	=38	=38	=38
4.C	1e	.	1g	.	1b-	ha	[1cc	.
4.E	.	.	.	.	.	.	.	.
4G	.	.	.	.	.	.	.	.
=39	=39	=39	=39	=39	=39	=39	=39	=39
8C	8e	.	8g	.	8b-	.	1cc]	.
2r	2r	.	2r	.	2r	.	.	.
8CL	8r	.	8r	.	8r	.	.	.
8C	4r	.	4r	.	4r	.	.	.
8CJ	.	.	.	.	.	.	.	.
=40!|:	=40!|:	=40!|:	=40!|:	=40!|:	=40!|:	=40!|:	=40!|:	=40!|:
4F	8cL	.	8fL	.	8fL	.	8aL	.
.	8c	.	8f	.	8f	.	8a	.
4C	8c	.	8f	.	8f	.	8a	.
.	8cJ	.	8fJ	.	8fJ	.	8aJ	.
4F	8dL	.	8gL	.	8gL	.	8b-L	.
.	8c	.	8f	.	8f	.	8a	.
4C	8B-	.	8e	.	8e	.	8g	.
.	8cJ	.	8fJ	.	8fJ	.	8aJ	.
=41	=41	=41	=41	=41	=41	=41	=41	=41
4F	8r	.	8r	.	8r	.	8r	.
.	8cL	.	8fL	.	8aL	.	8cL	.
8C	8c	.	8f	.	8a	.	8c	.
4F	8cJ	.	8fJ	.	8aJ	.	8cJ	.
.	4d	.	4f	.	4a	.	4f	.
8EL	.	.	.	.	.	.	.	.
8F	4c	.	4e	.	4g	.	4g	.
8GJ	.	.	.	.	.	.	.	.
=42	=42	=42	=42	=42	=42	=42	=42	=42
4A	8d-XL	.	8eL	.	8aL	.	8aL	.
.	8d-	.	8e	.	8a	.	8a	.
4E	8d-	.	8e	.	8a	.	8a	.
.	8d-J	.	8eJ	.	8aJ	.	8aJ	.
4A	8d-L	.	8eL	.	8aL	.	8b-L	.
.	8d-	.	8f	.	8b-	.	8a	.
4E	8dn	.	8g	.	8cc	.	8g	.
.	8d-XJ	.	8eJ	.	8aJ	.	8aJ	.
=43	=43	=43	=43	=43	=43	=43	=43	=43
4A	8r	.	8r	.	8r	.	8r	.
.	8d-XL	.	8eL	.	8gL	.	8d-XL	.
8E	8d-	.	8e	.	8g	.	8d-	.
4A	8d-J	.	8eJ	.	8gJ	.	8d-J	.
.	4d-	.	4f	.	4a	.	4f	.
8B-L	.	.	.	.	.	.	.	.
8A	4d-	.	4e	.	4g	.	4g	.
8GJ	.	.	.	.	.	.	.	.
=44	=44	=44	=44	=44	=44	=44	=44	=44
8DL	4c	.	4a	.	4f	.	4a	.
8D	.	.	.	.	.	.	.	.
8D	2.c	.	2.f	.	2.d	.	2.f	.
8DJ	.	.	.	.	.	.	.	.
8DL	.	.	.	.	.	.	.	.
8D	.	.	.	.	.	.	.	.
8D	.	.	.	.	.	.	.	.
8DJ	.	.	.	.	.	.	.	.
=45	=45	=45	=45	=45	=45	=45	=45	=45
8DL	4r	.	4r	.	4r	.	4r	.
8D	.	.	.	.	.	.	.	.
8D	8r	.	8r	.	8r	.	8r	.
8DJ	8f	.	8f	.	8f	.	8f	.
8DL	8fL	.	8fL	.	8fL	.	8fL	.
8D	8g	.	8g	.	8g	.	8g	.
8D	8f	.	8f	.	8f	.	8f	.
8DJ	8fJ	.	8fJ	.	8fJ	.	8fJ	.
=46	=46	=46	=46	=46	=46	=46	=46	=46
8CL	4e-X	.	4a	.	4cc	.	4cc	.
8C	.	.	.	.	.	.	.	.
8C	[2.e-	.	[2.a	.	[2.cc	.	2.a	.
8CJ	.	.	.	.	.	.	.	.
8CL	.	.	.	.	.	.	.	.
8C	.	.	.	.	.	.	.	.
8C	.	.	.	.	.	.	.	.
8CJ	.	.	.	.	.	.	.	.
=47	=47	=47	=47	=47	=47	=47	=47	=47
8FL	1e-]	.	1a]	.	1cc]	.	4r	.
8F	.	.	.	.	.	.	.	.
8F	.	.	.	.	.	.	8dL	.
8FJ	.	.	.	.	.	.	8dJ	.
8FL	.	.	.	.	.	.	8aL	.
8FF	.	.	.	.	.	.	[8d	.
8GG	.	.	.	.	.	.	8d]	.
8AAJ	.	.	.	.	.	.	[8fJ	.
=48	=48	=48	=48	=48	=48	=48	=48	=48
8BB-L	2d	.	2f	.	2b-	lu	1f]	.
8BB-	.	.	.	.	.	.	.	.
8BB-	.	.	.	.	.	.	.	.
8BB-J	.	.	.	.	.	.	.	.
8BB-L	8r	.	8r	.	8r	.	.	.
8BB-	8e	.	8g	.	8cc	tu	.	.
8BB-	4d	.	4f	.	4b-	lu	.	.
8BB-J	.	.	.	.	.	.	.	.
=49	=49	=49	=49	=49	=49	=49	=49	=49
8AAL	1d	.	1e	.	1a	lu	4r	.
8AA	.	.	.	.	.	.	.	.
8AA	.	.	.	.	.	.	8dL	.
8AAJ	.	.	.	.	.	.	8dJ	.
8AAL	.	.	.	.	.	.	8aL	.
8AA	.	.	.	.	.	.	8d	.
8AA	.	.	.	.	.	.	8d	.
8AAJ	.	.	.	.	.	.	8fJ	.
=50	=50	=50	=50	=50	=50	=50	=50	=50
8DL	2c	.	2d	.	2a	lu	2f	.
8D	.	.	.	.	.	.	.	.
8D	.	.	.	.	.	.	.	.
8DJ	.	.	.	.	.	.	.	.
8DL	8r	.	8r	.	8r	.	8r	.
8D	8c	.	8f	.	8a	tu	8gL	.
8D	4f	.	4a	.	4cc	lu	8a	.
8DJ	.	.	.	.	.	.	[8gJ	.
=51	=51	=51	=51	=51	=51	=51	=51	=51
8GGL	4.d	.	4.g	.	4.b-	lu	2.g]	.
8GG	.	.	.	.	.	.	.	.
8GG	.	.	.	.	.	.	.	.
8GGJ	2Bn	.	2d	.	2g	lu	.	.
8GGL	.	.	.	.	.	.	.	.
8GG	.	.	.	.	.	.	.	.
8GG	.	.	.	.	.	.	8r	.
8GGJ	8D	.	8D	.	8d	.	8d	.
=52	=52	=52	=52	=52	=52	=52	=52	=52
8BB-L	8B-L	.	8B-L	.	8b-L	.	8b-L	.
8BB-	[8A	.	[8A	.	[8a	.	[8a	.
8BB-	8A]	.	8A]	.	8a]	.	8a]	.
8BB-J	[8B-J	.	[8B-J	.	[8b-J	.	[8b-J	.
8BB-L	8B-L]	.	8B-L]	.	8b-L]	.	8b-L]	.
8BB-	[8A	.	[8A	.	[8a	.	[8a	.
8BB-	8A]	.	8A]	.	8a]	.	8a]	.
8BB-J	[8B-J	.	[8B-J	.	[8b-J	.	[8b-J	.
=53	=53	=53	=53	=53	=53	=53	=53	=53
8BB-L	8B-L]	.	8B-L]	.	8b-L]	.	8b-L]	.
8BB-	[8A	.	[8A	.	[8a	.	[8a	.
8BB-	8A]	.	8A]	.	8a]	.	8a]	.
8BB-J	[8GJ	.	[8GJ	.	[8gJ	.	[8gJ	.
8BB-L	8GL]	.	8GL]	.	8gL]	.	8gL]	.
8BB-	[8F	.	[8F	.	[8f	.	[8f	.
8BB-	8F]	.	8F]	.	8f]	.	8f]	.
8BB-J	8D-XJ	.	8d-XJ	.	8fJ	.	8d-XJ	.
=54	=54	=54	=54	=54	=54	=54	=54	=54
8D-XL	8B-L	.	8d-XL	.	8gL	.	8b-L	.
8D-	[8A	.	[8c	.	[8f	.	[8a	.
8D-	8A]	.	8c]	.	8f]	.	8a]	.
8D-J	[8B-J	.	[8d-J	.	[8gJ	.	[8b-J	.
8D-L	8B-L]	.	8d-L]	.	8gL]	.	8b-L]	.
8D-	[8A	.	[8c	.	[8f	.	[8a	.
8D-	8A]	.	8c]	.	8f]	.	8a]	.
8D-J	[8B-J	.	[8d-J	.	[8gJ	.	[8b-J	.
=55	=55	=55	=55	=55	=55	=55	=55	=55
8CL	8B-L]	.	8d-L]	.	8gL]	.	8b-L]	.
8C	[8c	.	[8f	.	[8f	.	[8a	.
8C	8c]	.	8f]	.	8f]	.	8a]	.
8CJ	[8B-J	.	[8gJ	.	[8eJ	.	[8gJ	.
8CL	8B-L]	.	8gL]	.	8eL]	.	8gL]	.
8E	[8A	.	[8f	.	[8f	.	[8a	.
8F	8AJ]	.	8fJ]	.	8fJ]	.	8aJ]	.
8GJ	8r	.	8r	.	8r	.	8r	.
=56:|!	=56:|!	=56:|!	=56:|!	=56:|!	=56:|!	=56:|!	=56:|!	=56:|!
8CL	8B-L	.	8d-XL	.	8gL	.	8b-L	.
8C	[8c	.	[8f	.	[8f	.	[8a	.
8C	8c]	.	8f]	.	8f]	.	8a]	.
8CJ	[8B-J	.	[8gJ	.	[8eJ	.	[8gJ	.
8CL	8B-L]	.	8gL]	.	8eL]	.	8gL]	.
8E	[8A	.	[8f	.	[8f	.	[8a	.
8F	8A]	.	8f]	.	8f]	.	8a]	.
8GJ	8GJ	.	8eJ	.	8eJ	.	8gJ	.
=57	=57	=57	=57	=57	=57	=57	=57	=57
8DL	[1A	.	[1d	.	[1f	.	[1a	.
8D	.	.	.	.	.	.	.	.
8D	.	.	.	.	.	.	.	.
8DJ	.	.	.	.	.	.	.	.
8DL	.	.	.	.	.	.	.	.
8D	.	.	.	.	.	.	.	.
8D	.	.	.	.	.	.	.	.
8DJ	.	.	.	.	.	.	.	.
=58	=58	=58	=58	=58	=58	=58	=58	=58
8DL	1A]	.	1d]	.	1f]	.	1a]	.
8D	.	.	.	.	.	.	.	.
8D	.	.	.	.	.	.	.	.
8DJ	.	.	.	.	.	.	.	.
8DL	.	.	.	.	.	.	.	.
8D	.	.	.	.	.	.	.	.
8D	.	.	.	.	.	.	.	.
8DJ	.	.	.	.	.	.	.	.
=59	=59	=59	=59	=59	=59	=59	=59	=59
4.C	1e	.	1g	.	1b-	ha	[1cc	.
4.E	.	.	.	.	.	.	.	.
4G	.	.	.	.	.	.	.	.
=60	=60	=60	=60	=60	=60	=60	=60	=60
8C	8e	.	8g	.	8b-	.	8cc]	.
8r	8r	.	8r	.	8r	.	8r	.
4r	4r	.	4r	.	4r	.	4r	.
2r	2r	.	2r	.	2r	.	2r	.
=61	=61	=61	=61	=61	=61	=61	=61	=61
[1BB-	1r	.	1r	.	1r	.	4r	.
.	.	.	.	.	.	.	8fL	し
.	.	.	.	.	.	.	8fJ	あ
.	.	.	.	.	.	.	8f	わ
.	.	.	.	.	.	.	4f	せ
.	.	.	.	.	.	.	[8g	の
=62	=62	=62	=62	=62	=62	=62	=62	=62
1BB-]	1r	.	1r	.	1r	.	8g]	.
.	.	.	.	.	.	.	4a	い
.	.	.	.	.	.	.	8g	み
.	.	.	.	.	.	.	8f	を
.	.	.	.	.	.	.	4.f	.
=63	=63	=63	=63	=63	=63	=63	=63	=63
[1BB-	1r	.	1r	.	1r	.	4r	.
.	.	.	.	.	.	.	8fL	う
.	.	.	.	.	.	.	8fJ	ま
.	.	.	.	.	.	.	8f	れ
.	.	.	.	.	.	.	4f	い
.	.	.	.	.	.	.	[8g	く
=64	=64	=64	=64	=64	=64	=64	=64	=64
1BB-]	1r	.	1r	.	1r	.	8g]	.
.	.	.	.	.	.	.	4a	ひ
.	.	.	.	.	.	.	8g	び
.	.	.	.	.	.	.	8f	に
.	.	.	.	.	.	.	4f	.
.	.	.	.	.	.	.	8d	な
=65	=65	=65	=65	=65	=65	=65	=65	=65
[1AA	1r	.	1r	.	1r	.	4c	ん
.	.	.	.	.	.	.	8cL	ど
.	.	.	.	.	.	.	8ccJ	も
.	.	.	.	.	.	.	[2cc	.
=66	=66	=66	=66	=66	=66	=66	=66	=66
1AA]	1r	.	1r	.	1r	.	4cc]	.
.	.	.	.	.	.	.	4cc	つ
.	.	.	.	.	.	.	4cc	む
.	.	.	.	.	.	.	4dd	ぎ
=67	=67	=67	=67	=67	=67	=67	=67	=67
1D	1r	.	1r	.	1r	.	4.a	だ
.	.	.	.	.	.	.	8g	す
.	.	.	.	.	.	.	8g	よ
.	.	.	.	.	.	.	[4.f#X	.
=68	=68	=68	=68	=68	=68	=68	=68	=68
4D	4r	.	2r	.	2r	.	2f#]	.
4D	4A	lu	.	.	.	.	.	.
4D	4A	lu	4d	lu	4r	.	4.r	.
4D	4A	lu	4d	lu	4f	lu	.	.
.	.	.	.	.	.	.	[8fn	き
=69	=69	=69	=69	=69	=69	=69	=69	=69
8GG	8B-	.	8d	.	8g	tu	8fL]	.
8r	8r	.	8r	.	8r	.	8f	み
8r	8r	.	8r	.	8r	.	8g	が
8AA	8c	.	8e	.	8a	tu	8gJ	い
8r	8r	.	8r	.	8r	.	8aL	る
8r	8r	.	8r	.	8r	.	8f	ん
8BB-	8B-	.	8d	.	8f	tu	[8f	だ
8r	8r	.	8r	.	8r	.	8fJ]	.
=70	=70	=70	=70	=70	=70	=70	=70	=70
8BB-L	1r	.	1r	.	1r	.	2r	.
8BB-	.	.	.	.	.	.	.	.
8BB-	.	.	.	.	.	.	.	.
8BB-J	.	.	.	.	.	.	.	.
8BB-L	.	.	.	.	.	.	4.r	.
8BB-	.	.	.	.	.	.	.	.
8BB-	.	.	.	.	.	.	.	.
8BB-J	.	.	.	.	.	.	[8f	ぼ
=71	=71	=71	=71	=71	=71	=71	=71	=71
8GG	8B-	.	8d	.	8g	tu	8fL]	.
8r	8r	.	8r	.	8r	.	8f	く
8r	8r	.	8r	.	8r	.	8g	が
8AA	8c	.	8e	.	8a	tu	8gJ	い
8r	8r	.	8r	.	8r	.	8aL	る
8r	8r	.	8r	.	8r	.	8g	ん
8BB-	8B-	.	8d	.	8f	tu	[8f	だ
8r	8r	.	8r	.	8r	.	8fJ]	.
=72	=72	=72	=72	=72	=72	=72	=72	=72
8BB-L	1r	.	1r	.	1r	.	4r	.
8BB-	.	.	.	.	.	.	.	.
8BB-	.	.	.	.	.	.	8r	.
8BB-J	.	.	.	.	.	.	8f	は
8BB-L	.	.	.	.	.	.	8f	じ
8BB-	.	.	.	.	.	.	4f	め
8BB-	.	.	.	.	.	.	.	.
8BB-J	.	.	.	.	.	.	8f	よ
=73	=73	=73	=73	=73	=73	=73	=73	=73
8CL	4.C	.	4.G	.	4.e	lu	1g	う
8C	.	.	.	.	.	.	.	.
8C	.	.	.	.	.	.	.	.
8CJ	4.E	.	4.c	.	4.g	lu	.	.
8CL	.	.	.	.	.	.	.	.
8C	.	.	.	.	.	.	.	.
8C	4G	.	4e	.	4cc	lu	.	.
8CJ	.	.	.	.	.	.	.	.
=74	=74	=74	=74	=74	=74	=74	=74	=74
8C	8G	.	8e	.	8cc	lu	1r	.
8r	8r	.	8r	.	8r	.	.	.
4r	4r	.	4r	.	4r	.	.	.
2r	2r	.	2r	.	2r	.	.	.
=75	=75	=75	=75	=75	=75	=75	=75	=75
4F	8cL	.	8fL	.	8fL	.	8aL	.
.	8c	.	8f	.	8f	.	8a	.
4C	8c	.	8f	.	8f	.	8a	.
.	8cJ	.	8fJ	.	8fJ	.	8aJ	.
4F	8dL	.	8gL	.	8gL	.	8b-L	.
.	8c	.	8f	.	8f	.	8a	.
4C	8B-	.	8e	.	8e	.	8g	.
.	8cJ	.	8fJ	.	8fJ	.	8aJ	.
=76	=76	=76	=76	=76	=76	=76	=76	=76
4F	8r	.	8r	.	8r	.	8r	.
.	8cL	.	8fL	.	8aL	.	8cL	.
8C	8c	.	8f	.	8a	.	8c	.
4F	8cJ	.	8fJ	.	8aJ	.	8cJ	.
.	4d	.	4f	.	4a	.	4f	.
8EL	.	.	.	.	.	.	.	.
8F	4c	.	4e	.	4g	.	4g	.
8GJ	.	.	.	.	.	.	.	.
=77	=77	=77	=77	=77	=77	=77	=77	=77
4A	8d-XL	.	8eL	.	8aL	.	8aL	.
.	8d-	.	8e	.	8a	.	8a	.
4E	8d-	.	8e	.	8a	.	8a	.
.	8d-J	.	8eJ	.	8aJ	.	8aJ	.
4A	8d-L	.	8eL	.	8aL	.	8b-L	.
.	8d-	.	8f	.	8b-	.	8a	.
4E	8dn	.	8g	.	8cc	.	8g	.
.	8d-XJ	.	8eJ	.	8aJ	.	8aJ	.
=78	=78	=78	=78	=78	=78	=78	=78	=78
4A	8r	.	8r	.	8r	.	8r	.
.	8d-XL	.	8eL	.	8gL	.	8d-XL	.
8E	8d-	.	8e	.	8g	.	8d-	.
4A	8d-J	.	8eJ	.	8gJ	.	8d-J	.
.	4d-	.	4f	.	4a	.	4f	.
8B-L	.	.	.	.	.	.	.	.
8A	4d-	.	4e	.	4g	.	4g	.
8GJ	.	.	.	.	.	.	.	.
=79	=79	=79	=79	=79	=79	=79	=79	=79
8DL	4c	.	4a	.	4f	.	4a	.
8D	.	.	.	.	.	.	.	.
8D	2.c	.	2.f	.	2.d	.	2.f	.
8DJ	.	.	.	.	.	.	.	.
8DL	.	.	.	.	.	.	.	.
8D	.	.	.	.	.	.	.	.
8D	.	.	.	.	.	.	.	.
8DJ	.	.	.	.	.	.	.	.
=80	=80	=80	=80	=80	=80	=80	=80	=80
8DL	4r	.	4r	.	4r	.	4r	.
8D	.	.	.	.	.	.	.	.
8D	8r	.	8r	.	8r	.	8r	.
8DJ	8f	.	8f	.	8f	.	8f	.
8DL	8fL	.	8fL	.	8fL	.	8fL	.
8D	8g	.	8g	.	8g	.	8g	.
8D	8f	.	8f	.	8f	.	8f	.
8DJ	8fJ	.	8fJ	.	8fJ	.	8fJ	.
=81	=81	=81	=81	=81	=81	=81	=81	=81
8CL	4e-X	.	4a	.	4cc	.	4cc	.
8C	.	.	.	.	.	.	.	.
8C	[2.e-	.	[2.a	.	[2.cc	.	2.a	.
8CJ	.	.	.	.	.	.	.	.
8CL	.	.	.	.	.	.	.	.
8C	.	.	.	.	.	.	.	.
8C	.	.	.	.	.	.	.	.
8CJ	.	.	.	.	.	.	.	.
=82	=82	=82	=82	=82	=82	=82	=82	=82
8FL	1e-]	.	1a]	.	1cc]	.	4r	.
8F	.	.	.	.	.	.	.	.
8F	.	.	.	.	.	.	8dL	.
8FJ	.	.	.	.	.	.	8dJ	.
8FL	.	.	.	.	.	.	8aL	.
8FF	.	.	.	.	.	.	[8d	.
8GG	.	.	.	.	.	.	8d]	.
8AAJ	.	.	.	.	.	.	[8fJ	.
=83	=83	=83	=83	=83	=83	=83	=83	=83
8BB-L	2d	.	2f	.	2b-	.	1f]	.
8BB-	.	.	.	.	.	.	.	.
8BB-	.	.	.	.	.	.	.	.
8BB-J	.	.	.	.	.	.	.	.
8BB-L	8r	.	8r	.	8r	.	.	.
8BB-	8e	.	8g	.	8cc	.	.	.
8BB-	4d	.	4f	.	4b-	.	.	.
8BB-J	.	.	.	.	.	.	.	.
=84	=84	=84	=84	=84	=84	=84	=84	=84
8AAL	1d	.	1e	.	1a	.	4r	.
8AA	.	.	.	.	.	.	.	.
8AA	.	.	.	.	.	.	8dL	.
8AAJ	.	.	.	.	.	.	8dJ	.
8AAL	.	.	.	.	.	.	8aL	.
8AA	.	.	.	.	.	.	8d	.
8AA	.	.	.	.	.	.	8d	.
8AAJ	.	.	.	.	.	.	8fJ	.
=85	=85	=85	=85	=85	=85	=85	=85	=85
8DL	2c	.	2d	.	2a	.	2f	.
8D	.	.	.	.	.	.	.	.
8D	.	.	.	.	.	.	.	.
8DJ	.	.	.	.	.	.	.	.
8DL	8r	.	8r	.	8r	.	8r	.
8D	8c	.	8f	.	8a	.	8gL	.
8D	4f	.	4a	.	4cc	.	8a	.
8DJ	.	.	.	.	.	.	[8gJ	.
=86	=86	=86	=86	=86	=86	=86	=86	=86
8GGL	4.d	.	4.g	.	4.b-	.	2.g]	.
8GG	.	.	.	.	.	.	.	.
8GG	.	.	.	.	.	.	.	.
8GGJ	2Bn	.	2d	.	2g	.	.	.
8GGL	.	.	.	.	.	.	.	.
8GG	.	.	.	.	.	.	.	.
8GG	.	.	.	.	.	.	8r	.
8GGJ	8D	.	8D	.	8d	.	8d	.
=87	=87	=87	=87	=87	=87	=87	=87	=87
8BB-L	8B-L	.	8B-L	.	8b-L	.	8b-L	.
8BB-	[8A	.	[8A	.	[8a	.	[8a	.
8BB-	8A]	.	8A]	.	8a]	.	8a]	.
8BB-J	[8B-J	.	[8B-J	.	[8b-J	.	[8b-J	.
8BB-L	8B-L]	.	8B-L]	.	8b-L]	.	8b-L]	.
8BB-	[8A	.	[8A	.	[8a	.	[8a	.
8BB-	8A]	.	8A]	.	8a]	.	8a]	.
8BB-J	[8B-J	.	[8B-J	.	[8b-J	.	[8b-J	.
=88	=88	=88	=88	=88	=88	=88	=88	=88
8BB-L	8B-L]	.	8B-L]	.	8b-L]	.	8b-L]	.
8BB-	[8A	.	[8A	.	[8a	.	[8a	.
8BB-	8A]	.	8A]	.	8a]	.	8a]	.
8BB-J	[8GJ	.	[8GJ	.	[8gJ	.	[8gJ	.
8BB-L	8GL]	.	8GL]	.	8gL]	.	8gL]	.
8BB-	[8F	.	[8F	.	[8f	.	[8f	.
8BB-	8F]	.	8F]	.	8f]	.	8f]	.
8BB-J	8D-XJ	.	8d-XJ	.	8fJ	.	8d-XJ	.
=89	=89	=89	=89	=89	=89	=89	=89	=89
8D-XL	8B-L	.	8d-XL	.	8gL	.	8b-L	.
8D-	[8A	.	[8c	.	[8f	.	[8a	.
8D-	8A]	.	8c]	.	8f]	.	8a]	.
8D-J	[8B-J	.	[8d-J	.	[8gJ	.	[8b-J	.
8D-L	8B-L]	.	8d-L]	.	8gL]	.	8b-L]	.
8D-	[8A	.	[8c	.	[8f	.	[8a	.
8D-	8A]	.	8c]	.	8f]	.	8a]	.
8D-J	[8B-J	.	[8d-J	.	[8gJ	.	[8b-J	.
=90	=90	=90	=90	=90	=90	=90	=90	=90
8CL	8B-L]	.	8d-L]	.	8gL]	.	8b-L]	.
8C	[8c	.	[8f	.	[8f	.	[8a	.
8C	8c]	.	8f]	.	8f]	.	8a]	.
8CJ	[8B-J	.	[8gJ	.	[8eJ	.	[8gJ	.
8CL	8B-L]	.	8gL]	.	8eL]	.	8gL]	.
8E	[8A	.	[8f	.	[8f	.	[8a	.
8F	8A]	.	8f]	.	8f]	.	8a]	.
8GJ	8DJ	.	8DJ	.	8dJ	.	8dJ	.
=91	=91	=91	=91	=91	=91	=91	=91	=91
8BB-L	8B-L	.	8B-L	.	8b-L	.	8b-L	.
8BB-	[8A	.	[8A	.	[8a	.	[8a	.
8BB-	8A]	.	8A]	.	8a]	.	8a]	.
8BB-J	[8B-J	.	[8B-J	.	[8b-J	.	[8b-J	.
8BB-L	8B-L]	.	8B-L]	.	8b-L]	.	8b-L]	.
8BB-	[8A	.	[8A	.	[8a	.	[8a	.
8BB-	8A]	.	8A]	.	8a]	.	8a]	.
8BB-J	[8B-J	.	[8B-J	.	[8b-J	.	[8b-J	.
=92	=92	=92	=92	=92	=92	=92	=92	=92
8BB-L	8B-L]	.	8B-L]	.	8b-L]	.	8b-L]	.
8BB-	[8A	.	[8A	.	[8a	.	[8a	.
8BB-	8A]	.	8A]	.	8a]	.	8a]	.
8BB-J	[8GJ	.	[8GJ	.	[8gJ	.	[8gJ	.
8BB-L	8GL]	.	8GL]	.	8gL]	.	8gL]	.
8BB-	[8F	.	[8F	.	[8f	.	[8f	.
8BB-	8F]	.	8F]	.	8f]	.	8f]	.
8BB-J	8D-XJ	.	8d-XJ	.	8fJ	.	8d-XJ	.
=93	=93	=93	=93	=93	=93	=93	=93	=93
8D-XL	8B-L	.	8d-XL	.	8gL	.	8b-L	.
8D-	[8A	.	[8c	.	[8f	.	[8a	.
8D-	8A]	.	8c]	.	8f]	.	8a]	.
8D-J	[8B-J	.	[8d-J	.	[8gJ	.	[8b-J	.
8D-L	8B-L]	.	8d-L]	.	8gL]	.	8b-L]	.
8D-	[8A	.	[8c	.	[8f	.	[8a	.
8D-	8A]	.	8c]	.	8f]	.	8a]	.
8D-J	[8B-J	.	[8d-J	.	[8gJ	.	[8b-J	.
=94	=94	=94	=94	=94	=94	=94	=94	=94
8CL	8B-L]	.	8d-L]	.	8gL]	.	8b-L]	.
8C	[8c	.	[8f	.	[8a	.	[8cc	.
8C	8c]	.	8f]	.	8a]	.	8cc]	.
8CJ	[8B-J	.	[8gJ	.	[8eJ	.	[8gJ	.
8CL	8B-L]	.	8gL]	.	8eL]	.	8gL]	.
8E	[8A	.	[8f	.	[8d	.	[8f	.
8F	8A]	.	8f]	.	8d]	.	8f]	.
8GJ	8GJ	.	8eJ	.	8eJ	.	8gJ	.
=95	=95	=95	=95	=95	=95	=95	=95	=95
1FF	1c	.	2f	.	2a	.	1a	.
.	.	.	8fL	.	8aL	tu	.	.
.	.	.	8gJ	.	8b-J	lu	.	.
.	.	.	4a	.	4cc	lu	.	.
=96	=96	=96	=96	=96	=96	=96	=96	=96
1ryy	1c	.	1f	.	1a	lu	1r	.
=97	=97	=97	=97	=97	=97	=97	=97	=97
1AA	1d-X	.	2e	.	2a	lu	1r	.
.	.	.	8eL	.	8aL	tu	.	.
.	.	.	8fJ	.	8b-J	lu	.	.
.	.	.	4g	.	4cc	lu	.	.
=98	=98	=98	=98	=98	=98	=98	=98	=98
1ryy	2d-X	.	2e	.	2a	lu	1r	.
.	2d-	.	8eL	.	8aL	tu	.	.
.	.	.	8fJ	.	8b-J	lu	.	.
.	.	.	4g	.	4cc	lu	.	.
=99	=99	=99	=99	=99	=99	=99	=99	=99
8DL	2f	.	2a	.	2cc	lu	1r	.
8D	.	.	.	.	.	.	.	.
8D	.	.	.	.	.	.	.	.
8DJ	.	.	.	.	.	.	.	.
8DL	8AL	.	8eL	.	8aL	tu	.	.
8D	8B-J	.	8fJ	.	8b-J	lu	.	.
8D	4c	.	4g	.	4cc	lu	.	.
8DJ	.	.	.	.	.	.	.	.
=100	=100	=100	=100	=100	=100	=100	=100	=100
8CL	2f	.	2a	.	2cc	lu	1r	.
8C	.	.	.	.	.	.	.	.
8C	.	.	.	.	.	.	.	.
8CJ	.	.	.	.	.	.	.	.
8CL	8AL	.	8eL	.	8aL	tu	.	.
8C	8B-J	.	8fJ	.	8b-J	lu	.	.
8C	4c	.	4g	.	4cc	lu	.	.
8CJ	.	.	.	.	.	.	.	.
=101	=101	=101	=101	=101	=101	=101	=101	=101
8BB-L	4r	.	4r	.	4r	.	1r	.
8BB-	.	.	.	.	.	.	.	.
8BB-	2f	.	2b-	.	2dd	lu	.	.
8BB-J	.	.	.	.	.	.	.	.
8BB-L	.	.	.	.	.	.	.	.
8BB-	.	.	.	.	.	.	.	.
8BB-	8fL	.	8aL	.	8ccL	tu	.	.
8BB-J	8gJ	.	8b-J	.	8ddJ	lu	.	.
=102	=102	=102	=102	=102	=102	=102	=102	=102
8r	8r	.	8r	.	8r	.	1r	.
8C	8f	.	8a	.	8cc	tu	.	.
8r	8r	.	8r	.	8r	.	.	.
8C	8e	.	8g	.	8b-	tu	.	.
8r	8r	.	8r	.	8r	.	.	.
8C	8d	.	8f	.	8a	tu	.	.
8r	8r	.	8r	.	8r	.	.	.
8C	8c	.	8e	.	8g	tu	.	.
=103	=103	=103	=103	=103	=103	=103	=103	=103
1F	1c	.	1f	.	1a	ha	1f	.
==	==	==	==	==	==	==	==	==
*-	*-	*-	*-	*-	*-	*-	*-	*-
